tools/download-figma-icons/icons/outlined-large/heart.svg

<svg width="64" height="64" viewBox="0 0 64 64" fill="none" xmlns="http://www.w3.org/2000/svg">
<path fill-rule="evenodd" clip-rule="evenodd" d="M9.20745 10.409C11.8694 7.567 15.4014 6.003 19.1504 6.003C22.8964 6.004 26.4174 7.559 29.0314 10.346L30.8754 12.447C31.4434 13.097 32.5604 13.097 33.1294 12.447L34.9404 10.382C37.5864 7.559 41.1064 6.004 44.8524 6.003C48.6024 6.003 52.1344 7.567 54.7964 10.408C60.3764 16.362 60.4264 25.994 54.9114 31.879H54.9104L32.0204 56.305L9.09045 31.857C3.57245 25.987 3.62545 16.366 9.20745 10.409ZM30.9264 59.526C31.2104 59.829 31.6064 60 32.0204 60C32.4354 60 32.8314 59.828 33.1154 59.526L57.1004 33.934H57.0994C63.6774 26.916 63.6274 15.441 56.9874 8.356C53.7504 4.902 49.4414 3 44.8524 3C40.2684 3.001 35.9704 4.894 32.7174 8.366L32.0024 9.182L31.2544 8.328C28.0324 4.894 23.7344 3.001 19.1504 3C14.5624 3 10.2544 4.902 7.01645 8.357C0.372446 15.446 0.321446 26.912 6.90245 33.912L30.9264 59.526ZM51.0389 17.776C51.1909 18.482 51.8139 18.963 52.5049 18.963C52.6089 18.963 52.7149 18.952 52.8209 18.93C53.6309 18.756 54.1489 17.959 53.9739 17.148C53.4409 14.66 50.9839 9.956 45.5039 9.956C44.6749 9.956 44.0029 10.628 44.0029 11.457C44.0029 12.286 44.6749 12.958 45.5039 12.958C49.9109 12.958 50.9959 17.586 51.0389 17.776Z" fill="black"/>
</svg>

<svg width="64" height="64" viewBox="0 0 64 64" fill="none" xmlns="http://www.w3.org/2000/svg"><path fill-rule="evenodd" clip-rule="evenodd" d="M9.207 10.409c2.662-2.842 6.194-4.406 9.943-4.406 3.746.001 7.267 1.556 9.881 4.343l1.844 2.101c.568.65 1.685.65 2.254 0l1.811-2.065c2.646-2.823 6.166-4.378 9.912-4.379 3.75 0 7.282 1.564 9.944 4.405 5.58 5.954 5.63 15.586.115 21.471L32.02 56.305 9.09 31.857c-5.519-5.87-5.466-15.491.116-21.448Zm21.72 49.117a1.499 1.499 0 0 0 2.188 0L57.1 33.934c6.577-7.018 6.527-18.493-.113-25.578C53.75 4.902 49.441 3 44.852 3c-4.584.001-8.882 1.894-12.135 5.366l-.715.816-.748-.854C28.032 4.894 23.734 3.001 19.15 3c-4.588 0-8.896 1.902-12.134 5.357C.372 15.446.321 26.912 6.902 33.912l24.024 25.614Zm20.112-41.75a1.502 1.502 0 0 0 1.782 1.154 1.5 1.5 0 0 0 1.153-1.782c-.533-2.488-2.99-7.192-8.47-7.192a1.501 1.501 0 1 0 0 3.002c4.407 0 5.492 4.628 5.535 4.818Z" fill="currentColor"/></svg>
